X:1
T:Sancti mei qui in isto
T:Orlando di Lasso
T:Source : Bicinia---Antwerp---Pierre Phalèse Jr---1609. Editor : André Vierendeels (09/05/17).
T:Notes : Original clefs : C4, F4 Editorial accidentals above the staff Original note values have been halved Square bracket indicates ligature 
T:Sancti mei qui in isto
T:©
T:©
T:©
C:Orlando di Lasso
Z:©
%%score [ 1 2 ]
L:1/8
Q:1/4=120
M:2/2
K:F
V:1 treble-8 nm="Tenor" snm="T"
V:2 bass nm="Bass" snm="B"
V:1
 z4 F4- | F4 A4 | G4 F4 | z4 c3 B | AG F4 ED | C2 F3 E/D/ E2 | FGAB c4 | A4 z2 d2- | dcBA G2 G2 | %9
w: San-|* cti|me- i,|san- *||* cti _ _ _|me- * * * *|i, qui|_ _ _ _ _ in|
 G4 A3 B | c2 d3 c c2- | c2 B2 c4 | z2 c2 A3 G | AEFG AB c2 | F2 c3 BAG | AF B2 G2 A2- | %16
w: i- sto _|_ se- * *|* cu- lo|cer- ta- *||men ha- * * *|* * * bu- i-|
 AG/F/ G2 A4 | z2 c2 c4 | A2 D2 BA B2- |"^b" B2 G4 e2- | e2 d3 c/B/A/B/c | B4 A4 | B4 G4 | %23
w: * * * * stis,|mer- ce-|dem la bo- * *|* ru- *|* tro- * * * * *|* rim|e- go|
 c4 A3 G | FE D2 d3 c | =Bc A2 G4 | z2 A4 F2- | F2 B4 G2- | G2 A3 GFE | DEFG AB c2- | cB/A/ B2 c4 | %31
w: red- dam _|_ _ _ vo- *|* * * bis,|e- go|_ red- dam|_ vo- * * *||* * * * bis,|
 A4 F4 | B6 G2- | G2 A3 GFE | DE F3 E/D/ E2 | F8 |] %36
w: e- go|red- dam|_ vo- * * *||bis.|
V:2
 F,3 E, D,C, B,,2- | B,,2 A,,G,, F,,2 F,2- | F,E,/D,/ E,2 F,E,D,C, | B,,2 A,,3 B,, C,2 | F,,8 | %5
w: San- * * * *|* * * * cti|_ _ _ _ me- * * *|* i, _ _|San-|
 A,,4 G,,4 | F,,4 z2 F,2- | F,E,D,C, B,,2 B,,2 | B,,4 C,3 D, | E,F, G,3 F, F,E,/D,/ | %10
w: cti me-|i, qui|_ _ _ _ _ in|i- sto _|_ _ _ _ _ _ _|
"^b""^b" E,F, B,,2 F,2 E,2 |"^b" D,4 z2 A,2 | F,3 E, F,C,D,E, | F,G, A,2 D,2 A,2- | %14
w: * * * se- cu-|lo cer-|ta- * * * * *|* * * men ha-|
 A,G,F,E, F,3 E, | D,2 G,,2 C,2 B,,A,, | B,,4 A,,4- | A,,4 z2 F,2 | F,4 D,2 G,,2 | _E,D, E,2 C,4 | %20
w: |* bu- i- * *|* stis,,|_ mer-|ce- dem la-|bo- * * rum|
 G,4 F,3 E,/F,/ | G,D, G,2 F,2 D,2- |"^b" D,2 B,,4 E,2- | E,2 C,4 D,2- | D,C,B,,A,, G,,A,,B,,C, | %25
w: ve- stro- * *|* * * rum e-|* go red-|* dam vo-||
 D,E, F,3 E,/D,/ E,2 | F,4 D,4 |"^b" B,,4 E,4 | C,4 D,4 | A,3 G, ^F,G,E,F, | D,4 A,,2 A,2- | %31
w: |bis, e-|go red-|dam _|vo- * * * * *|* bis, e-|
 A,2 F,2 z2 D,2- |"^b" D,2 B,,2 E,4 | C,4 D,3 C, |"^b" =B,,C,A,,B,, G,,4 | F,,8 |] %36
w: * go, e-|* go red-|dam vo- *||bis.|

